img/preview.svg

<svg xmlns="http://www.w3.org/2000/svg" width="475" height="348" viewBox="0 0 475 348">
  <defs>
    <linearGradient id="preview-a" x1="55.91%" x2="64.677%" y1="39.657%" y2="66.29%">
      <stop offset="0%" stop-color="#240A49"/>
      <stop offset="100%" stop-color="#352054"/>
    </linearGradient>
    <filter id="preview-b" width="220.1%" height="205.3%" x="-60.1%" y="-52.7%" filterUnits="objectBoundingBox">
      <feOffset dx="-29" dy="7" in="SourceAlpha" result="shadowOffsetOuter1"/>
      <feGaussianBlur in="shadowOffsetOuter1" result="shadowBlurOuter1" stdDeviation="11"/>
      <feColorMatrix in="shadowBlurOuter1" result="shadowMatrixOuter1" values="0 0 0 0 0   0 0 0 0 0   0 0 0 0 0  0 0 0 0.12 0"/>
      <feMerge>
        <feMergeNode in="shadowMatrixOuter1"/>
        <feMergeNode in="SourceGraphic"/>
      </feMerge>
    </filter>
    <linearGradient id="preview-c" x1="78.294%" x2="78.294%" y1="85.49%" y2="6.904%">
      <stop offset="0%" stop-color="#4E2E62"/>
      <stop offset="100%" stop-color="#42348E"/>
    </linearGradient>
    <linearGradient id="preview-d" x1="78.294%" x2="78.294%" y1="91.722%" y2="2.615%">
      <stop offset="0%" stop-color="#884FAC"/>
      <stop offset="100%" stop-color="#644FD9"/>
    </linearGradient>
  </defs>
  <g fill="none" fill-rule="evenodd">
    <path fill="url(#preview-a)" d="M460.097079,191.424598 L196.26939,339.134523 L196.26939,339.134523 C176.398679,350.68274 144.096168,350.689144 124.082986,339.134523 L15.0760295,271.133244 C-4.9259465,259.588228 -5.04120399,240.861994 14.8279058,229.313776 L49.6996982,209.050768 C61.6392002,202.112472 135.422085,161.985418 271.048352,88.6696056 C300.210789,72.9051987 335.404441,73.1254569 364.367279,89.2536392 L460.040891,142.530237 C473.55136,150.053647 478.40483,167.104974 470.88142,180.615443 C468.357433,185.147995 464.623819,188.890201 460.097079,191.424598 Z" opacity=".6"/>
    <g transform="translate(97)">
      <g fill="#341D55">
        <polygon points=".27 252.916 .278 256.168 60.342 221.488 60.55 295.324 .49 330.004 .498 333.292 63.398 296.976 63.17 216.6"/>
        <polygon points="0 158.358 .012 161.614 60.072 126.938 60.284 200.77 .22 235.45 .228 238.706 63.128 202.39 62.904 122.042"/>
        <path d="M195.3204 217.5156L195.1124 143.6836 79.7284 210.2996 79.9364 284.1316 195.3204 217.5156 195.3204 217.5156zM76.8844 208.6796L197.9364 138.7876 198.1644 219.1676 77.1124 289.0596 76.8844 208.6796zM195.0508 122.9608L194.8428 49.1288 79.4628 115.7448 79.6668 189.5768 195.0508 122.9608 195.0508 122.9608zM76.6148 114.1248L197.6668 44.2328 197.8988 124.5808 76.8428 194.4728 76.6148 114.1248z"/>
        <polygon points="211.651 130.872 211.879 211.248 274.779 174.932 274.771 171.644 214.731 206.308 214.519 132.476 274.563 97.812 274.551 94.556"/>
        <polygon points="274.284 .001 211.38 36.317 211.612 116.661 274.512 80.345 274.504 77.089 214.46 111.757 214.256 37.929 274.292 3.257"/>
      </g>
      <g filter="url(#preview-b)" transform="translate(93 52)">
        <path fill="url(#preview-c)" d="M138.4512,58.9836 C138.4332,60.1116 138.4272,61.2396 138.4002,62.3736 C138.3672,63.7476 138.3042,65.1246 138.2532,66.5046 C138.2082,67.5816 138.1782,68.6586 138.1242,69.7386 C138.0462,71.2746 137.9412,72.8046 137.8392,74.3406 C137.7762,75.2586 137.7312,76.1766 137.6592,77.0886 C137.4762,79.5336 137.2632,81.9606 137.0142,84.3696 C136.8612,85.3116 136.6512,86.2536 136.4052,87.1806 C136.3272,87.4836 136.2222,87.7806 136.1322,88.0776 C135.9432,88.7076 135.7542,89.3376 135.5232,89.9556 C135.4182,90.2436 135.2952,90.5256 135.1812,90.8076 C134.9472,91.3986 134.6952,91.9776 134.4252,92.5506 C134.2722,92.8686 134.1192,93.1806 133.9572,93.4926 C133.6782,94.0356 133.3842,94.5666 133.0722,95.0916 C132.8982,95.3886 132.7302,95.6826 132.5442,95.9736 C132.1692,96.5646 131.7702,97.1436 131.3622,97.7076 C131.2212,97.8996 131.0952,98.0976 130.9512,98.2896 C130.8282,98.4486 130.6842,98.5986 130.5582,98.7606 C129.8502,99.6546 129.0912,100.5036 128.2932,101.3136 C128.0502,101.5626 127.8042,101.8086 127.5522,102.0486 C126.6012,102.9546 125.6172,103.8186 124.5612,104.5866 C109.1832,114.8316 93.1182,124.8126 76.7982,134.2356 C60.4812,143.6586 44.4252,152.2206 29.0592,159.7236 C28.4112,159.9996 27.8022,160.1736 27.1932,160.3536 C27.1692,160.2546 27.1302,160.1736 27.1092,160.0716 C24.9672,142.7466 24.9072,121.5726 26.9412,101.8326 C28.2462,93.8766 32.8662,86.3556 39.3912,81.6186 C54.7512,71.3616 70.8192,61.4016 87.1392,51.9786 C103.4592,42.5556 119.5122,33.9726 134.8782,26.4906 C135.5292,26.2116 136.1472,26.0196 136.7652,25.8396 C136.7862,25.9416 136.8282,26.0286 136.8492,26.1336 C137.0322,27.6396 137.1852,29.2056 137.3382,30.7656 C137.4432,31.8036 137.5452,32.8446 137.6382,33.9096 C137.7342,35.0826 137.8152,36.2856 137.8962,37.4856 C137.9712,38.5686 138.0462,39.6516 138.1092,40.7556 C138.1722,41.9766 138.2202,43.2156 138.2682,44.4576 C138.3132,45.5736 138.3642,46.6866 138.3912,47.8206 C138.4242,49.0806 138.4392,50.3586 138.4542,51.6336 C138.4692,52.7706 138.490456,53.9016 138.490456,55.0476 C138.4932,56.3526 138.4692,57.6696 138.4512,58.9836 M162.1602,21.2556 L162.0852,20.7456 C160.8522,14.3796 157.9482,10.0116 153.7842,7.8036 C153.9372,7.8876 154.1052,7.9446 154.2552,8.0346 L143.6802,1.8906 C139.1052,-0.7704 132.9012,-0.6714 125.6142,2.5056 C109.8102,10.1946 93.2772,19.0356 76.5162,28.7106 C59.7612,38.3886 43.2312,48.6366 27.1272,59.4126 C25.6512,60.4686 24.2382,61.6356 22.8522,62.8476 C22.4622,63.1896 22.0842,63.5436 21.7002,63.8976 C20.6202,64.8966 19.5702,65.9346 18.5562,67.0206 C18.2712,67.3206 17.9772,67.6116 17.6982,67.9206 C16.5822,69.1596 15.5022,70.4316 14.4792,71.7636 C14.3742,71.9016 14.2842,72.0456 14.1792,72.1836 C13.8342,72.6426 13.5192,73.1196 13.1862,73.5876 C12.3822,74.7096 11.5992,75.8496 10.8642,77.0226 C10.4922,77.6136 10.1412,78.2136 9.7902,78.8136 C9.1392,79.9296 8.5182,81.0576 7.9332,82.2066 C7.6152,82.8306 7.3002,83.4486 7.0032,84.0816 C6.4152,85.3236 5.8842,86.5836 5.3802,87.8586 C5.1612,88.3986 4.9272,88.9296 4.7262,89.4756 C4.6602,89.6556 4.5762,89.8296 4.5132,90.0096 C4.1142,91.1256 3.8082,92.2656 3.4782,93.3966 C3.2922,94.0206 3.0702,94.6386 2.9052,95.2656 C2.4012,97.2006 1.9872,99.1506 1.6872,101.1036 L1.6152,101.6976 C1.3422,104.3106 1.1082,106.9536 0.9042,109.6056 C0.8352,110.5026 0.7902,111.4056 0.7332,112.2996 C0.6102,114.0636 0.4902,115.8246 0.3972,117.5916 C0.3462,118.6806 0.3132,119.7696 0.2682,120.8586 C0.2052,122.4366 0.1392,124.0146 0.1002,125.5896 C0.0702,126.7596 0.0642,127.9206 0.0462,129.0846 C0.0252,130.5726 0.0012,132.0606 0.0012,133.5396 C0.0012,134.7456 0.0222,135.9306 0.0372,137.1306 C0.0552,138.5466 0.0702,139.9686 0.1062,141.3756 C0.1392,142.5846 0.1932,143.7726 0.2412,144.9696 C0.2922,146.3316 0.3462,147.6936 0.4152,149.0376 C0.4812,150.2286 0.5622,151.3926 0.6432,152.5656 C0.7332,153.8766 0.8232,155.1786 0.9312,156.4626 C1.0242,157.6146 1.1382,158.7366 1.2522,159.8646 C1.3302,160.6566 1.3872,161.4726 1.4772,162.2526 C1.5762,163.1616 1.6812,164.0586 1.7922,164.9496 L1.8732,165.4356 C2.0772,166.5036 2.3442,167.4906 2.6382,168.4446 C2.7072,168.6636 2.7762,168.8796 2.8482,169.0926 C3.1572,170.0076 3.5052,170.8776 3.8952,171.6816 C3.9462,171.7806 4.0032,171.8676 4.0512,171.9636 C4.4202,172.6836 4.8282,173.3556 5.2662,173.9826 C5.3742,174.1326 5.4732,174.2886 5.5812,174.4326 C6.0732,175.0896 6.6012,175.6986 7.1682,176.2446 C7.2012,176.2746 7.2282,176.3136 7.2612,176.3466 C7.3182,176.4006 7.3872,176.4306 7.4472,176.4846 C8.1462,177.1236 8.8872,177.6996 9.6972,178.1706 L20.2662,184.3116 C20.2032,184.2756 20.1492,184.2156 20.0832,184.1736 C24.6792,186.9546 30.9522,186.9066 38.3592,183.6696 C54.1452,175.9866 70.6392,167.1906 87.4182,157.5036 C104.1792,147.8256 120.7062,137.5566 136.8492,126.7836 C150.0402,117.2946 159.7782,101.3316 162.2652,85.1016 L162.3402,84.5076 C164.5632,63.0756 164.4972,40.0326 162.1602,21.2556 M60.006,78.1701 L60.126,121.0911 L70.698,127.2321 L103.887,86.5761 L93.318,80.4321 L60.006,78.1701 Z"/>
        <path fill="url(#preview-d)" d="M147.5859,90.5157 C146.3019,98.4417 141.6609,105.9687 135.1359,110.7297 C119.7579,120.9747 103.6899,130.9557 87.3699,140.3787 C71.0499,149.8017 54.9999,158.3637 39.6339,165.8667 C33.0999,168.6507 28.4289,166.4937 27.1089,160.0737 C24.9669,142.7457 24.9069,121.5747 26.9409,101.8317 C28.2459,93.8757 32.8659,86.3547 39.3939,81.6177 C54.7509,71.3607 70.8189,61.4007 87.1419,51.9777 C103.4589,42.5577 119.5119,33.9717 134.8779,26.4897 C141.4269,23.6997 146.0979,25.8537 147.4179,32.2767 C149.5599,49.5807 149.6229,70.7757 147.5859,90.5157 M162.1599,21.2547 L162.0849,20.7447 C159.5139,7.4577 149.7159,2.7537 136.1859,8.6487 C120.3819,16.3407 103.8519,25.1787 87.0909,34.8537 C70.3299,44.5317 53.7999,54.7797 37.6989,65.5557 C24.4869,75.0357 14.7489,91.0197 12.2619,107.2467 L12.1869,107.8407 C9.9609,129.2517 10.0269,152.3187 12.3639,171.0927 L12.4449,171.5787 C15.0129,184.9137 24.8109,189.5907 38.3589,183.6687 C54.1479,175.9857 70.6419,167.1927 87.4179,157.5027 C104.1789,147.8277 120.7059,137.5587 136.8489,126.7827 C150.0399,117.2937 159.7779,101.3307 162.2679,85.1007 L162.3399,84.5067 C164.5629,63.0777 164.4969,40.0317 162.1599,21.2547 M70.6992,127.2336 L103.8882,86.5746 L70.5762,84.3126 L70.6992,127.2336 Z"/>
      </g>
    </g>
  </g>
</svg>

<svg xmlns="http://www.w3.org/2000/svg" width="475" height="348" viewBox="0 0 475 348"><defs><linearGradient id="preview-a" x1="55.91%" x2="64.677%" y1="39.657%" y2="66.29%"><stop offset="0%" stop-color="#240A49"/><stop offset="100%" stop-color="#352054"/></linearGradient><linearGradient id="preview-c" x1="78.294%" x2="78.294%" y1="85.49%" y2="6.904%"><stop offset="0%" stop-color="#4E2E62"/><stop offset="100%" stop-color="#42348E"/></linearGradient><linearGradient id="preview-d" x1="78.294%" x2="78.294%" y1="91.722%" y2="2.615%"><stop offset="0%" stop-color="#884FAC"/><stop offset="100%" stop-color="#644FD9"/></linearGradient><filter id="preview-b" width="220.1%" height="205.3%" x="-60.1%" y="-52.7%" filterUnits="objectBoundingBox"><feOffset dx="-29" dy="7" in="SourceAlpha" result="shadowOffsetOuter1"/><feGaussianBlur in="shadowOffsetOuter1" result="shadowBlurOuter1" stdDeviation="11"/><feColorMatrix in="shadowBlurOuter1" result="shadowMatrixOuter1" values="0 0 0 0 0 0 0 0 0 0 0 0 0 0 0 0 0 0 0.12 0"/><feMerge><feMergeNode in="shadowMatrixOuter1"/><feMergeNode in="SourceGraphic"/></feMerge></filter></defs><g fill="none" fill-rule="evenodd"><path fill="url(#preview-a)" d="M460.097 191.425L196.27 339.135c-19.87 11.548-52.173 11.554-72.186 0L15.076 271.133c-20.002-11.545-20.117-30.271-.248-41.82L49.7 209.052c11.94-6.939 85.722-47.066 221.348-120.381a97 97 0 0193.32.584l95.673 53.276c13.51 7.524 18.364 24.575 10.84 38.085a28 28 0 01-10.784 10.81z" opacity=".6"/><path d="M97.27 252.916l.008 3.252 60.064-34.68.208 73.836-60.06 34.68.008 3.288 62.9-36.316-.228-80.376zM97 158.358l.012 3.256 60.06-34.676.212 73.832-60.064 34.68.008 3.256 62.9-36.316-.224-80.348zm195.32 59.158l-.208-73.832L176.728 210.3l.208 73.832 115.384-66.616zm-118.436-8.836l121.052-69.892.228 80.38-121.052 69.892-.228-80.38zm118.167-85.72l-.208-73.831-115.38 66.616.204 73.832L292.05 122.96zm-118.436-8.835l121.052-69.892.232 80.348-121.056 69.892-.228-80.348zm135.036 16.747l.228 80.376 62.9-36.316-.008-3.288-60.04 34.664-.212-73.832 60.044-34.664-.012-3.256zM371.284.001L308.38 36.317l.232 80.344 62.9-36.316-.008-3.256-60.044 34.668-.204-73.828 60.036-34.672z" fill="#341D55"/><g filter="url(#preview-b)" transform="translate(190 52)"><path fill="url(#preview-c)" d="M138.451 58.984c-.018 1.128-.024 2.256-.05 3.39-.034 1.374-.097 2.75-.148 4.13-.045 1.078-.075 2.155-.129 3.235-.078 1.536-.183 3.066-.285 4.602-.063.918-.108 1.836-.18 2.748a258.424 258.424 0 01-.645 7.28 29.332 29.332 0 01-.609 2.812c-.078.303-.183.6-.273.897-.189.63-.378 1.26-.609 1.878-.105.288-.228.57-.342.852-.234.59-.486 1.17-.756 1.743-.153.318-.306.63-.468.942a29.626 29.626 0 01-.885 1.599c-.174.297-.342.59-.528.882-.375.59-.774 1.17-1.182 1.734-.14.192-.267.39-.41.582-.124.159-.268.309-.394.47a31.571 31.571 0 01-2.265 2.554 28.53 28.53 0 01-.74.735c-.952.906-1.936 1.77-2.992 2.538a881.61 881.61 0 01-47.763 29.649c-16.317 9.423-32.373 17.985-47.739 25.488-.648.276-1.257.45-1.866.63-.024-.1-.063-.18-.084-.282-2.142-17.325-2.202-38.5-.168-58.24 1.305-7.955 5.925-15.476 12.45-20.213 15.36-10.257 31.428-20.217 47.748-29.64 16.32-9.423 32.373-18.006 47.74-25.488a16.043 16.043 0 011.886-.651c.021.102.063.189.084.294.183 1.506.336 3.072.49 4.632.104 1.038.206 2.079.3 3.144.095 1.173.176 2.376.257 3.576.075 1.083.15 2.166.213 3.27.063 1.22.111 2.46.16 3.702.044 1.116.095 2.229.122 3.363.033 1.26.048 2.538.063 3.813.015 1.137.036 2.268.036 3.414.003 1.305-.02 2.622-.039 3.936m23.71-37.728l-.076-.51c-1.233-6.366-4.137-10.734-8.3-12.942.152.084.32.14.47.23L143.68 1.892c-4.575-2.661-10.779-2.562-18.066.615-15.804 7.689-32.337 16.53-49.098 26.205-16.755 9.678-33.285 19.926-49.389 30.702-1.476 1.056-2.889 2.223-4.275 3.435-.39.342-.768.696-1.152 1.05a60.498 60.498 0 00-3.144 3.123c-.285.3-.579.59-.858.9a63.964 63.964 0 00-3.219 3.843c-.105.138-.195.282-.3.42-.345.459-.66.936-.993 1.404a66.86 66.86 0 00-2.322 3.435 64.218 64.218 0 00-1.074 1.79 67.643 67.643 0 00-1.857 3.394c-.318.624-.633 1.242-.93 1.875A62.467 62.467 0 005.38 87.86c-.219.54-.453 1.07-.654 1.617-.066.18-.15.354-.213.534-.399 1.116-.705 2.256-1.035 3.387-.186.624-.408 1.242-.573 1.869a58.33 58.33 0 00-1.218 5.838l-.072.594a291.002 291.002 0 00-.71 7.908c-.07.897-.115 1.8-.172 2.694a311.084 311.084 0 00-.336 5.292c-.05 1.089-.084 2.178-.129 3.267-.063 1.578-.129 3.156-.168 4.73-.03 1.17-.036 2.332-.054 3.496-.02 1.488-.045 2.976-.045 4.455 0 1.206.021 2.39.036 3.59.018 1.417.033 2.839.07 4.246.032 1.209.086 2.397.134 3.594.051 1.362.105 2.724.174 4.068.066 1.19.147 2.355.228 3.528.09 1.31.18 2.613.288 3.897.093 1.152.207 2.274.321 3.402.078.792.135 1.608.225 2.388.1.909.204 1.806.315 2.697l.081.486a27.873 27.873 0 00.975 3.657c.31.915.657 1.785 1.047 2.589.051.099.108.186.156.282.37.72.777 1.392 1.215 2.019.108.15.207.306.315.45a14.95 14.95 0 001.587 1.812c.033.03.06.069.093.102.057.054.126.084.186.138.7.639 1.44 1.215 2.25 1.686l10.57 6.14c-.064-.035-.118-.095-.184-.137 4.596 2.78 10.87 2.733 18.276-.504 15.786-7.683 32.28-16.48 49.06-26.166a898.989 898.989 0 0049.43-30.72c13.191-9.49 22.93-25.452 25.416-41.682l.075-.594c2.223-21.432 2.157-44.475-.18-63.252M60.006 78.17l.12 42.921 10.572 6.141 33.189-40.656-10.569-6.144-33.312-2.262z"/><path fill="url(#preview-d)" d="M147.586 90.516c-1.284 7.926-5.925 15.453-12.45 20.214a881.698 881.698 0 01-47.766 29.649c-16.32 9.423-32.37 17.985-47.736 25.488-6.534 2.784-11.205.627-12.525-5.793-2.142-17.328-2.202-38.5-.168-58.242 1.305-7.956 5.925-15.477 12.453-20.214C54.75 71.36 70.819 61.4 87.142 51.978c16.317-9.42 32.37-18.006 47.736-25.488 6.549-2.79 11.22-.636 12.54 5.787 2.142 17.304 2.205 38.499.168 58.239m14.574-69.261l-.075-.51c-2.571-13.287-12.37-17.991-25.9-12.096-15.803 7.692-32.333 16.53-49.094 26.205C70.33 44.532 53.8 54.78 37.699 65.556c-13.212 9.48-22.95 25.464-25.437 41.69l-.075.595c-2.226 21.41-2.16 44.478.177 63.252l.08.486c2.569 13.335 12.367 18.012 25.915 12.09 15.789-7.683 32.283-16.476 49.059-26.166a895.359 895.359 0 0049.43-30.72c13.192-9.49 22.93-25.452 25.42-41.682l.072-.594c2.223-21.43 2.157-44.475-.18-63.252M70.7 127.234l33.188-40.66-33.312-2.261.123 42.92z"/></g></g></svg>
